resources/haticons/SVG/sd_storage.svg

<!-- Generated by IcoMoon.io -->
<svg version="1.1" xmlns="http://www.w3.org/2000/svg" width="24" height="24" viewBox="0 0 24 24">
<title>sd_storage</title>
<path d="M18 8.016v-4.031h-2.016v4.031h2.016zM15 8.016v-4.031h-2.016v4.031h2.016zM12 8.016v-4.031h-2.016v4.031h2.016zM18 2.016q0.797 0 1.406 0.586t0.609 1.383v16.031q0 0.797-0.609 1.383t-1.406 0.586h-12q-0.797 0-1.406-0.586t-0.609-1.383l0.047-12 5.953-6h8.016z"></path>
</svg>

<svg xmlns="http://www.w3.org/2000/svg" width="24" height="24"><path d="M18 8.016V3.985h-2.016v4.031H18zm-3 0V3.985h-2.016v4.031H15zm-3 0V3.985H9.984v4.031H12zm6-6q.797 0 1.406.586t.609 1.383v16.031q0 .797-.609 1.383T18 21.985H6q-.797 0-1.406-.586t-.609-1.383l.047-12 5.953-6h8.016z"/></svg>
